X: 40647
T: Top It Off
R: slip jig
M: 9/8
K: Dmixolydian
M:4/4
K: Cmix
|:GF|EGGF E2 GE|Addc BAGF|E2 GF ECGB|ABcd c2:|
|:df|eccB c/d/c Gf|dBBA B2 Bf|cAA^G A2 Ac|1 BGGF G2:|2 A/B/c dB c2||

